X: 1
T: The Little Thatched Cabin
R: reel
M: 4/4
L: 1/8
K: D
"D"A,D~D2 FGAB|=cDDE FGAc|d2 cd BdAG|FADB, "C"=C2 B,C|
"D"A,D~D2 FGAB|=cdDE FGAc|d2 cd BdAG|1 "G"FD"A"EC "D"D3 B :|2"G"FD"A"EC "D"D2Ac ||
"D"d2 fd Adfd|"G"g2fg edBc|"D"d2 fd Adfd|"C"=cAGE =C2 Ac |
"D"d2 fd Adfd|(3Bcd ef "G"g2 ag|"D"fdec "G"dBAG|"A"FGEC "D"D2 FA|
"D"d2 fd Adfd|"G"g2fg edBc|"D"d2 fd Adfd|=cAGE DEFA|
"D"d2 fd Adfd|(3Bcd ef "G"g2 ag|"D"fdec "G"dBAG|"A"FGEF "D"D4||

